static/logos/usertesting-glyph-color.svg

<svg width="50" height="65" viewBox="0 0 50 65" fill="none" xmlns="http://www.w3.org/2000/svg">
<g clip-path="url(#clip0_1_465)">
<path d="M10.0866 0.0673828H40.1456C45.7527 0.0673828 50.1625 4.47716 49.9517 9.89033V42.7571C49.9517 48.1618 45.5503 52.5716 40.1372 52.5716H33.5267L37.1355 64.1905L19.7072 52.5716H10.095C4.48794 52.5716 0.078137 48.1618 0.078137 42.5548V9.89877C0.0697293 4.47716 4.47951 0.0673828 10.0866 0.0673828ZM21.7645 36.1382C20.7443 35.5733 19.9264 34.7554 19.3109 33.6762C18.6954 32.5969 18.3918 31.2984 18.3918 29.7892V12.2765C18.3918 12.0067 18.3328 11.7959 18.2063 11.661C18.0883 11.5177 17.8859 11.4502 17.5992 11.4502H13.122C13.0208 11.4502 12.9196 11.4671 12.8269 11.5092C12.7341 11.5514 12.6498 11.6104 12.5908 11.6947C12.4475 11.8549 12.3716 12.0657 12.38 12.2849V29.7217C12.38 32.5126 12.9534 34.8482 14.1001 36.7453C15.2468 38.634 16.7814 40.0421 18.7206 40.9696C20.6515 41.8971 22.81 42.3524 25.1878 42.3524C27.5739 42.3524 29.7325 41.8971 31.6633 40.9949C33.5942 40.0927 35.1287 38.7015 36.2755 36.8128C37.4222 34.9241 37.9955 32.58 37.9955 29.7807V12.2934C37.9955 12.1838 37.9787 12.0741 37.9365 11.9645C37.8943 11.8634 37.8353 11.7622 37.7594 11.6863C37.5992 11.5261 37.3884 11.4418 37.1186 11.4418H32.8522C32.5992 11.4418 32.3884 11.5177 32.2367 11.6779C32.0765 11.8381 32.0006 12.0404 32.0006 12.2934V29.7892C32.0006 31.1972 31.697 32.4536 31.09 33.5413C30.4829 34.6374 29.665 35.4806 28.6279 36.0792C27.5908 36.6779 26.4441 36.973 25.1962 36.973C23.923 36.9814 22.7847 36.7032 21.7645 36.1382Z" fill="#2B52FD"/>
</g>
<defs>
<clipPath id="clip0_1_465">
<rect width="50" height="64.2496" fill="white"/>
</clipPath>
</defs>
</svg>

<svg xmlns="http://www.w3.org/2000/svg" width="49.231" height="64" fill="none" viewBox="0 0 50 65"><g clip-path="url(#a)"><path fill="#2B52FD" d="M10.087.067h30.059c5.607 0 10.017 4.41 9.806 9.823v32.867c0 5.405-4.402 9.815-9.815 9.815h-6.61l3.608 11.618-17.428-11.618h-9.612c-5.607 0-10.017-4.41-10.017-10.017V9.899C.07 4.477 4.48.067 10.087.067Zm11.678 36.071c-1.02-.565-1.839-1.383-2.454-2.462-.616-1.08-.92-2.378-.92-3.887V12.276c0-.27-.058-.48-.185-.615-.118-.143-.32-.21-.607-.21h-4.477a.71.71 0 0 0-.295.058.567.567 0 0 0-.236.186.835.835 0 0 0-.211.59v17.437c0 2.79.573 5.126 1.72 7.023 1.147 1.889 2.681 3.297 4.62 4.225 1.931.927 4.09 1.382 6.468 1.382 2.386 0 4.545-.455 6.475-1.357 1.931-.902 3.466-2.293 4.613-4.182 1.146-1.889 1.72-4.233 1.72-7.032V12.293a.872.872 0 0 0-.236-.607c-.16-.16-.372-.244-.641-.244h-4.267c-.253 0-.464.076-.615.236-.16.16-.236.362-.236.615V29.79c0 1.408-.304 2.665-.911 3.752-.607 1.096-1.425 1.94-2.462 2.538-1.037.599-2.184.894-3.432.894-1.273.008-2.411-.27-3.431-.835Z"/></g><defs><clipPath id="a"><path fill="#fff" d="M0 0h50v64.25H0z"/></clipPath></defs></svg>
